vms/client/nx_vms_client_core/external_resources/skin/64x64/Solid/user_cp.svg

<svg width="64" height="64" viewBox="0 0 64 64" fill="none" xmlns="http://www.w3.org/2000/svg">
<g id="64x64/Solid/user_cp">
<circle id="Primary" cx="32" cy="32" r="32" fill="#212A2F"/>
<path id="Tertiary" d="M44.2637 38.1182C44.6701 38.1183 45 38.448 45 38.8545V47.2637C44.9999 47.6701 44.6701 47.9999 44.2637 48H31.7363C31.3299 47.9998 31.0001 47.6701 31 47.2637V38.8545C31 38.448 31.3299 38.1183 31.7363 38.1182H44.2637ZM41.3379 33.8C41.5408 33.8002 41.7049 33.9652 41.7051 34.1682V35.2353L41.7061 37.2939H40.2V35.25H35.8V37.2939H34.2939V34.1682C34.2941 33.9652 34.4592 33.8002 34.6621 33.8H41.3379Z" fill="#E1E7EA"/>
<path id="Secondary" d="M28.886 36.6924C28.3636 37.2607 28.0403 38.03 28.0403 38.8789V45H20.3001C19.5052 44.9999 18.8962 44.2779 19.0139 43.4756C19.5869 39.5769 22.869 36.6924 26.7317 36.6924H28.886ZM30.7688 38.1191L30.6995 38.1533C30.7219 38.1406 30.7451 38.1286 30.7688 38.1182L30.8421 38.0908C30.8171 38.0989 30.7926 38.1086 30.7688 38.1191ZM30.9993 18C34.3128 18.0002 36.9993 20.6865 36.9993 24V26.5381C36.9991 29.8515 34.3127 32.5379 30.9993 32.5381C27.6857 32.5381 24.9994 29.8516 24.9993 26.5381V24C24.9993 20.6864 27.6857 18 30.9993 18Z" fill="#A5B7C0"/>
</g>
</svg>

<svg xmlns="http://www.w3.org/2000/svg" width="64" height="64" fill="none" viewBox="0 0 64 64">
  <g class="64x64/Solid/user_cp">
    <circle cx="32" cy="32" r="32" fill="#212A2F" class="Primary"/>
    <path fill="#E1E7EA" d="M44.264 38.118c.406 0 .736.33.736.736v8.41c0 .406-.33.736-.736.736H31.736a.737.737 0 0 1-.736-.736v-8.41c0-.406.33-.736.736-.736h12.528ZM41.338 33.8c.203 0 .367.165.367.368v1.067l.001 2.059H40.2V35.25h-4.4v2.044h-1.506v-3.126c0-.203.165-.368.368-.368h6.676Z" class="Tertiary"/>
    <path fill="#A5B7C0" d="M28.886 36.692a3.222 3.222 0 0 0-.846 2.187V45H20.3c-.795 0-1.404-.722-1.286-1.524.573-3.9 3.855-6.784 7.718-6.784h2.154Zm1.883 1.427-.07.034a.763.763 0 0 1 .07-.035l.073-.027a.77.77 0 0 0-.073.028ZM30.999 18a6 6 0 0 1 6 6v2.538a6 6 0 0 1-12 0V24a6 6 0 0 1 6-6Z" class="Secondary"/>
  </g>
</svg>
